X: 032
T: Ellie T's (jig)
N: 052004
C: BB
R: jig
Q: 1/8=340
M: 6/8
L: 1/8
K: G
A|"G"d^cd "Am"=cAc|"G"BGB "D"AFD|"Em"EFG "Am"AGE|"D"DFG A3|
"G"d^cd "Am"=cAc|"G"BGB "Am"ABc|"G"ded "C"cGE|"D"DFA "G"G2 :|
e|"G"gfg dBG|"C"cBc "D"AFD|"G"GBd "Am7"cag|"D"fd^c d2e|
"G"gfg dBG|"C"cBc "Em"EFG|"G"ded "D7"cAF|"D"AGF "G"G2 :|
%%%%%%%%%%%%%%%%%%%%%%%%%%%%%%%%
